X:284
T:Glasgow Lasses
R:Reel
B:The Athole Collection
M:C|
L:1/8
K:F
C|F>GFA cAAf|FGFA BGGA|FGFA cAAc|dfeg af~f:|
|:f/g/|a>gfc Ac cf/g/|agfc eg gf/g/|1 agfc d/e/f cA|B/c/d GB AFF:|2
a>fg>e fcfA|B/c/d GB AFF||

